X: 16366
T: Gurteen Cross, The
R: polka
M: 2/4
K: Gmajor
GB AB/A/|Gg e/f/g/e/|dB AG/A/|BB/A/ G/F/E/D/|
GB AB/A/|Gg e/f/g/e/|dB AG/A/|1 BG G2:|2 BG G>A||
|:Bd g>d|Bd g>d|Bd ge|f2 fg|
a/b/a/g/ e/f/g/e/|dB AG/A/|Be d/B/A/B/|1 G2 G>A:|2 G2 G2||

